web/public/images/3p-logos/graphql.svg

<svg viewBox="0 0 54 48" fill="none" xmlns="http://www.w3.org/2000/svg">
<path fill-rule="evenodd" clip-rule="evenodd" d="M31.4293 5.49391L41.287 11.1854C41.5646 10.8914 41.8888 10.6318 42.2566 10.4181C44.3011 9.24289 46.9087 9.9407 48.0962 11.9852C49.2714 14.0296 48.5736 16.6372 46.5292 17.8247C46.1642 18.0345 45.7808 18.1846 45.3906 18.2781V29.6655C45.7766 29.7591 46.1557 29.9083 46.5169 30.1159C48.5736 31.3034 49.2714 33.911 48.0839 35.9555C46.9087 37.9999 44.2888 38.6977 42.2444 37.5225C41.8374 37.2885 41.4837 36.9972 41.1876 36.6647L31.39 42.3215C31.5301 42.7447 31.6059 43.1974 31.6059 43.6681C31.6059 46.0186 29.6961 47.9406 27.3333 47.9406C24.9706 47.9406 23.0608 46.0308 23.0608 43.6681C23.0608 43.2481 23.1211 42.8424 23.2336 42.4592L13.3786 36.7692C13.104 37.0575 12.7842 37.3122 12.4223 37.5225C10.3656 38.6977 7.75799 37.9999 6.58274 35.9555C5.40748 33.911 6.10529 31.3034 8.14975 30.1159C8.51122 29.9081 8.89031 29.7589 9.27603 29.6653V18.2781C8.88585 18.1846 8.5025 18.0345 8.1375 17.8247C6.09305 16.6494 5.39524 14.0296 6.5705 11.9852C7.74575 9.9407 10.3656 9.24289 12.41 10.4181C12.7759 10.6306 13.0986 10.8886 13.3751 11.1806L23.2355 5.48758C23.1218 5.10258 23.0608 4.69479 23.0608 4.27254C23.0608 1.90979 24.9706 0 27.3333 0C29.6961 0 31.6059 1.90979 31.6059 4.27254C31.6059 4.69711 31.5442 5.10705 31.4293 5.49391ZM30.4023 7.24748L40.2834 12.9525C39.978 14.0253 40.0901 15.2148 40.6896 16.2577C41.2911 17.304 42.271 17.9976 43.3584 18.2679V29.6696C43.303 29.6832 43.2479 29.6979 43.193 29.7137L30.2875 7.36144C30.3265 7.32417 30.3648 7.28618 30.4023 7.24748ZM24.3818 7.36402L11.4766 29.7159C11.4208 29.6997 11.3646 29.6847 11.3082 29.6707V18.2679C12.3957 17.9976 13.3756 17.304 13.9771 16.2577C14.5778 15.2127 14.6891 14.0206 14.3814 12.9462L24.2598 7.24272C24.2997 7.28397 24.3403 7.32441 24.3818 7.36402ZM28.5271 8.37663L41.4295 30.7235C41.1407 30.9988 40.8862 31.3196 40.6774 31.6829C40.4697 32.0441 40.3206 32.4232 40.227 32.8092H14.4399C14.3463 32.4235 14.1971 32.0444 13.9893 31.6829C13.7796 31.3219 13.5257 31.0029 13.2383 30.7288L26.1431 8.37767C26.5208 8.48668 26.9202 8.54508 27.3333 8.54508C27.7478 8.54508 28.1484 8.48631 28.5271 8.37663ZM30.493 40.7897L40.31 35.1217C40.2806 35.0292 40.2542 34.9357 40.2311 34.8414H14.4345C14.4208 34.8968 14.406 34.9519 14.3901 35.0067L24.2553 40.7025C25.0321 39.8964 26.1233 39.3955 27.3333 39.3955C28.5864 39.3955 29.7121 39.9327 30.493 40.7897Z" fill="#E535AB"/>
</svg>

<svg fill="none" viewBox="0 0 54 48" xmlns="http://www.w3.org/2000/svg"><path clip-rule="evenodd" d="m31.43 5.494 9.857 5.691c.278-.294.602-.553.97-.767a4.282 4.282 0 0 1 5.84 1.567 4.282 4.282 0 0 1-1.568 5.84c-.365.21-.748.36-1.138.453v11.387c.386.094.765.243 1.126.45a4.26 4.26 0 0 1 1.567 5.84c-1.175 2.045-3.795 2.743-5.84 1.567a4.246 4.246 0 0 1-1.056-.857L31.39 42.32a4.277 4.277 0 0 1-4.057 5.62 4.269 4.269 0 0 1-4.272-4.273c0-.42.06-.826.173-1.209l-9.855-5.69a4.306 4.306 0 0 1-.957.753c-2.056 1.176-4.664.478-5.84-1.566a4.282 4.282 0 0 1 1.568-5.84c.361-.208.74-.357 1.126-.45V18.277a4.287 4.287 0 0 1-1.139-.453c-2.044-1.176-2.742-3.795-1.567-5.84 1.176-2.044 3.796-2.742 5.84-1.567.366.213.689.47.965.763l9.86-5.693a4.284 4.284 0 0 1-.174-1.215A4.269 4.269 0 0 1 27.333 0a4.269 4.269 0 0 1 4.273 4.273c0 .424-.062.834-.177 1.22zm-1.028 1.753 9.881 5.705a4.267 4.267 0 0 0 3.075 5.316V29.67c-.055.013-.11.028-.165.044L30.288 7.36a4.21 4.21 0 0 0 .114-.114zm-6.02.117L11.477 29.716a4.444 4.444 0 0 0-.169-.045V18.268a4.267 4.267 0 0 0 3.073-5.322l9.879-5.703c.04.041.08.081.122.121zm4.145 1.013L41.43 30.723a4.28 4.28 0 0 0-1.203 2.086H14.441a4.286 4.286 0 0 0-.45-1.126 4.302 4.302 0 0 0-.752-.954L26.143 8.378a4.286 4.286 0 0 0 2.384-.001zm1.966 32.413 9.817-5.668a4.315 4.315 0 0 1-.079-.28H14.435l-.045.165 9.865 5.696a4.26 4.26 0 0 1 3.078-1.308 4.26 4.26 0 0 1 3.16 1.395z" fill="#e535ab" fill-rule="evenodd"/></svg>
